src/assets/icons/show.svg

<?xml version="1.0" encoding="UTF-8"?>
<svg width="24px" height="24px" viewBox="0 0 24 24" version="1.1" xmlns="http://www.w3.org/2000/svg" xmlns:xlink="http://www.w3.org/1999/xlink">
    <title>椭圆形 2</title>
    <g id="扩展程序" stroke="none" stroke-width="1" fill="none" fill-rule="evenodd" opacity="0.5">
        <g id="通用控件" transform="translate(-305.000000, -133.000000)" fill="#6E7585" fill-rule="nonzero">
            <g id="编组-2备份-2" transform="translate(30.000000, 120.000000)">
                <g id="椭圆形-2" transform="translate(275.000000, 13.000000)">
                    <path d="M12,4 C15.7323093,4 18.9282758,5.90290855 21.5878994,9.70872566 C22.507786,11.0250473 22.5477806,12.7568419 21.7078833,14.1092911 L21.5878979,14.29129 L21.3446302,14.6320261 C18.7340822,18.2106754 15.6192055,20 12,20 C8.26769066,20 5.07172419,18.0970914 2.41210058,14.2912743 C1.49221396,12.9749527 1.45221943,11.2431581 2.29211674,9.89070892 L2.41210206,9.70870999 L2.65536977,9.3679739 C5.26591776,5.78932463 8.3807945,4 12,4 Z M12,6 C9.15916824,6 6.69459345,7.36136539 4.50827887,10.2281463 L4.28309698,10.5300858 L4.05146486,10.8543494 C3.57061366,11.5424277 3.57061336,12.4575574 4.05146411,13.145636 C6.35817756,16.4464525 8.96738635,18 12,18 C14.8408318,18 17.3054066,16.6386346 19.4917211,13.7718537 L19.716903,13.4699142 L19.9485351,13.1456506 C20.4293863,12.4575723 20.4293866,11.5424426 19.9485359,10.854364 C17.6418224,7.5535475 15.0326137,6 12,6 Z M12,9 C13.6568542,9 15,10.3431458 15,12 C15,13.6568542 13.6568542,15 12,15 C10.3431458,15 9,13.6568542 9,12 C9,10.3431458 10.3431458,9 12,9 Z" id="椭圆形"></path>
                </g>
            </g>
        </g>
    </g>
</svg>

<svg width="24" height="24" xmlns="http://www.w3.org/2000/svg"><path d="M12 4c3.732 0 6.928 1.903 9.588 5.709a4 4 0 0 1 .12 4.4l-.12.182-.243.341C18.735 18.211 15.619 20 12 20c-3.732 0-6.928-1.903-9.588-5.709a4 4 0 0 1-.12-4.4l.12-.182.243-.341C5.265 5.789 8.381 4 12 4zm0 2c-2.84 0-5.305 1.361-7.492 4.228l-.225.302-.232.324a2 2 0 0 0 0 2.292C6.358 16.446 8.967 18 12 18c2.84 0 5.305-1.361 7.492-4.228l.225-.302.232-.324a2 2 0 0 0 0-2.292C17.642 7.554 15.033 6 12 6zm0 3a3 3 0 1 1 0 6 3 3 0 0 1 0-6z" fill="#6e7585" fill-rule="nonzero" opacity=".5"/></svg>
